X: 26868
T: Miners Of Wicklow, The
R: jig
M: 6/8
K: Dmajor
|:D|F2 A ABc|dAF AFD|G/A/B G E3|F/G/A F DAD|
F2 A Ace|dcB A3|Bcd efg|1 fAG FED:|2 fdc dag||
f2 d f2 d|e3 eag|f/g/a f d3|g/a/b g e3|
f3 gab|afd cBA|B2 d efg|edc dag|
fdd fdd|ecA efg|faf d3|gbg e3|
f3 g2 b|afd cBA|Bcd efg|fAG FED||

